dist/svgs/crypto-icons/icons/xzc.svg

<?xml version="1.0" encoding="UTF-8" standalone="yes"?>
<svg xmlns="http://www.w3.org/2000/svg" xmlns:xlink="http://www.w3.org/1999/xlink" width="512px" height="512px" viewBox="0 0 384 384" version="1.1">
  <g id="surface1">
    <path style=" stroke:none;fill-rule:nonzero;fill:rgb(0%,0%,0%);fill-opacity:1;" d="M 245.09375 253.203125 L 310.167969 253.203125 L 310.167969 310.121094 L 114.648438 310.121094 L 357.359375 67.199219 C 365.273438 59.277344 367.621094 47.25 363.515625 36.980469 C 359.121094 26.714844 349.152344 19.96875 337.71875 19.96875 L 47.816406 19.96875 C 32.277344 19.96875 19.96875 32.289062 19.96875 47.839844 L 19.96875 253.203125 L 140.445312 132.625 L 75.371094 132.625 L 75.371094 75.417969 L 270.59375 75.417969 L 28.175781 318.335938 C 20.261719 326.257812 17.914062 338.285156 22.019531 348.554688 C 26.417969 358.820312 36.382812 365.566406 47.816406 365.566406 L 337.71875 365.566406 C 352.964844 365.566406 365.566406 353.246094 365.566406 337.699219 L 365.566406 132.625 Z M 245.09375 253.203125 "/>
  </g>
</svg>

<svg xmlns="http://www.w3.org/2000/svg" viewBox="0 0 384 384"><path d="M245.094 253.203h65.074v56.918h-195.52L357.36 67.2c7.914-7.922 10.262-19.949 6.157-30.219-4.395-10.265-14.364-17.011-25.797-17.011H47.816c-15.539 0-27.847 12.32-27.847 27.87v205.364l120.476-120.578H75.371V75.418h195.223L28.176 318.336c-7.914 7.922-10.262 19.95-6.156 30.219 4.398 10.265 14.363 17.011 25.796 17.011H337.72c15.246 0 27.847-12.32 27.847-27.867V132.625zm0 0"/></svg>
